src/assets/outline/RefreshCircle.svg

<svg width="24" height="24" viewBox="0 0 24 24"  xmlns="http://www.w3.org/2000/svg">
<path d="M12 22.75C6.07 22.75 1.25 17.93 1.25 12C1.25 6.07 6.07 1.25 12 1.25C17.93 1.25 22.75 6.07 22.75 12C22.75 17.93 17.93 22.75 12 22.75ZM12 2.75C6.9 2.75 2.75 6.9 2.75 12C2.75 17.1 6.9 21.25 12 21.25C17.1 21.25 21.25 17.1 21.25 12C21.25 6.9 17.1 2.75 12 2.75Z" />
<path d="M11.9999 17.4701C10.5999 17.4701 9.19994 16.9401 8.12994 15.8701C7.84994 15.5901 7.59993 15.2801 7.36993 14.9101C7.14993 14.5601 7.25992 14.1001 7.60992 13.8801C7.95992 13.6601 8.41995 13.7701 8.63995 14.1201C8.80995 14.4001 8.98994 14.6201 9.18994 14.8201C10.7399 16.3701 13.2599 16.3701 14.8099 14.8201C15.4099 14.2201 15.79 13.4401 15.92 12.5701C15.98 12.1601 16.3599 11.8601 16.7699 11.9301C17.1799 11.9901 17.4599 12.3701 17.4099 12.7801C17.2399 13.9701 16.7099 15.0401 15.8799 15.8801C14.7999 16.9401 13.3999 17.4701 11.9999 17.4701Z" />
<path d="M7.3399 12.08C7.2999 12.08 7.26991 12.08 7.22991 12.07C6.81991 12.01 6.5299 11.6299 6.5899 11.2199C6.7599 10.0299 7.2899 8.95996 8.1199 8.11996C10.2499 5.98996 13.7199 5.98996 15.8599 8.11996C16.1399 8.39996 16.3899 8.70999 16.6199 9.08999C16.8399 9.43999 16.7299 9.89996 16.3799 10.12C16.0299 10.34 15.5699 10.23 15.3499 9.87997C15.1799 9.60997 14.9999 9.37996 14.7999 9.17996C13.2499 7.62996 10.7299 7.62996 9.17989 9.17996C8.57989 9.77996 8.19991 10.56 8.06991 11.43C8.02991 11.81 7.7099 12.08 7.3399 12.08Z" />
<path d="M7.82031 17.9297C7.41031 17.9297 7.07031 17.5897 7.07031 17.1797V14.5098C7.07031 14.0998 7.41031 13.7598 7.82031 13.7598H10.4903C10.9003 13.7598 11.2403 14.0998 11.2403 14.5098C11.2403 14.9198 10.9003 15.2598 10.4903 15.2598H8.57031V17.1797C8.57031 17.5897 8.24031 17.9297 7.82031 17.9297Z" />
<path d="M16.1797 10.2403H13.5098C13.0998 10.2403 12.7598 9.9003 12.7598 9.4903C12.7598 9.0803 13.0998 8.7403 13.5098 8.7403H15.4297V6.82031C15.4297 6.41031 15.7697 6.07031 16.1797 6.07031C16.5897 6.07031 16.9297 6.41031 16.9297 6.82031V9.4903C16.9297 9.9103 16.5897 10.2403 16.1797 10.2403Z" />
</svg>

<?xml version="1.0" encoding="UTF-8"?>
<svg width="24" height="24" viewBox="0 0 24 24" xmlns="http://www.w3.org/2000/svg">
 <path d="m12 22.75c-5.93 0-10.75-4.82-10.75-10.75s4.82-10.75 10.75-10.75 10.75 4.82 10.75 10.75-4.82 10.75-10.75 10.75zm0-20c-5.1 0-9.25 4.15-9.25 9.25s4.15 9.25 9.25 9.25 9.25-4.15 9.25-9.25-4.15-9.25-9.25-9.25z"/>
 <path d="m12 17.47c-1.4 0-2.8-0.53-3.87-1.6-0.28-0.28-0.53001-0.59-0.76001-0.96-0.22-0.35-0.11001-0.81 0.23999-1.03s0.81003-0.11 1.03 0.24c0.17 0.28 0.34999 0.5 0.54999 0.7 1.55 1.55 4.07 1.55 5.62 0 0.6-0.6 0.9801-1.38 1.1101-2.25 0.06-0.41 0.4399-0.71 0.8499-0.64 0.41 0.06 0.69 0.44 0.64 0.85-0.17 1.19-0.7 2.26-1.53 3.1-1.08 1.06-2.48 1.59-3.88 1.59z"/>
 <path d="m7.3399 12.08c-0.04 0-0.06999 0-0.10999-0.01-0.41-0.06-0.70001-0.4401-0.64001-0.8501 0.17-1.19 0.7-2.2599 1.53-3.0999 2.13-2.13 5.6-2.13 7.74 0 0.28 0.28 0.53 0.59003 0.76 0.97003 0.22 0.35 0.11 0.80997-0.24 1.03-0.35 0.22-0.81 0.11-1.03-0.24003-0.17-0.27-0.35-0.50001-0.55-0.70001-1.55-1.55-4.07-1.55-5.62 0-0.6 0.6-0.97998 1.38-1.11 2.25-0.04 0.38-0.36001 0.65-0.73001 0.65z"/>
 <path d="m7.8203 17.93c-0.41 0-0.75-0.34-0.75-0.75v-2.6699c0-0.41 0.34-0.75 0.75-0.75h2.67c0.41 0 0.75 0.34 0.75 0.75s-0.34 0.75-0.75 0.75h-1.92v1.9199c0 0.41-0.33 0.75-0.75 0.75z"/>
 <path d="m16.18 10.24h-2.6699c-0.41 0-0.75-0.34-0.75-0.75s0.34-0.75 0.75-0.75h1.9199v-1.92c0-0.41 0.34-0.75 0.75-0.75s0.75 0.34 0.75 0.75v2.67c0 0.42-0.34 0.75-0.75 0.75z"/>
</svg>
